source_images/ic_set/ic_set_walled_village.svg

<svg xmlns:svg="http://www.w3.org/2000/svg" xmlns="http://www.w3.org/2000/svg" version="1.1" width="19" height="18" viewBox="0 0 19 18"><path d="M1.13 17.95 7.45 18 8.79 14.68c0.31-0.84 0.95-0.82 1.23 0l1.39 3.21 6.11 0-2.95-7.28c-0.76-1.85 0.15-2.03 1.66-1.93 2.25 0.14 2.42-1.72 1-2.55C15.65 5.19 14.15 4.5 12.01 3.65 11.75 1.79 11.36 0.11 9.49 0c-1.87-0.11-2.59 2.05-2.62 3.75-1.82 0.51-3.65 1.42-4.86 2.14-1.33 0.79-2.06 2.83 0.89 2.74 1.29-0.04 2.15 0.09 1.18 2.41l-2.95 6.91z" fill="#000"/></svg>

<?xml version="1.0" standalone="no"?>
<!DOCTYPE svg PUBLIC "-//W3C//DTD SVG 1.1//EN" "http://www.w3.org/Graphics/SVG/1.1/DTD/svg11.dtd">
<svg xmlns:xlink="http://www.w3.org/1999/xlink" xmlns="http://www.w3.org/2000/svg" version="1.1" width="19px" height="18px" viewBox="0 0 19 18">
  <path d="M1.13 17.95L7.45 18L8.79 14.68C9.1 13.84 9.74 13.86 10.02 14.68L11.42 17.89L17.52 17.89L14.58 10.61C13.81 8.76 14.73 8.58 16.24 8.68C18.48 8.83 18.65 6.96 17.24 6.13C15.65 5.19 14.15 4.5 12.01 3.65C11.75 1.79 11.36 0.11 9.49 0C7.61 -0.1 6.9 2.05 6.86 3.75C5.04 4.27 3.21 5.17 2.01 5.89C0.68 6.68 -0.05 8.72 2.9 8.63C4.19 8.59 5.05 8.72 4.08 11.04L1.13 17.95z" stroke="none" fill="#000000"/>
</svg>
